packages/kaspersky-hexa-ui-icons/src/iconsSVGs/16/DeleteSolid.svg

<svg width="16" height="16" viewBox="0 0 16 16" fill="none" xmlns="http://www.w3.org/2000/svg">
<path fill-rule="evenodd" clip-rule="evenodd" d="M4.63062 3.2915C4.63062 2.04886 5.63797 1.0415 6.88062 1.0415H9.14935C10.392 1.0415 11.3993 2.04886 11.3993 3.2915V3.85394L13.4756 3.85394C13.8346 3.85394 14.1256 4.14496 14.1256 4.50394C14.1256 4.86293 13.8346 5.15394 13.4756 5.15394H12.7475V12.9665C12.7475 14.0987 11.8296 15.0165 10.6975 15.0165H5.33272C4.20053 15.0165 3.28271 14.0987 3.28271 12.9665V5.15394H2.5543C2.19531 5.15394 1.9043 4.86293 1.9043 4.50394C1.9043 4.14496 2.19531 3.85394 2.5543 3.85394H4.63062V3.2915ZM6.88062 2.3415C6.35594 2.3415 5.93062 2.76683 5.93062 3.2915V3.85393H10.0993V3.2915C10.0993 2.76683 9.67402 2.3415 9.14935 2.3415H6.88062ZM7.26436 7.78953C7.26436 7.43054 6.97334 7.13953 6.61436 7.13953C6.25537 7.13953 5.96436 7.43054 5.96436 7.78953V11.2859C5.96436 11.6449 6.25537 11.9359 6.61436 11.9359C6.97334 11.9359 7.26436 11.6449 7.26436 11.2859V7.78953ZM9.34971 7.13953C9.70869 7.13953 9.99971 7.43054 9.99971 7.78953V11.2859C9.99971 11.6449 9.70869 11.9359 9.34971 11.9359C8.99072 11.9359 8.69971 11.6449 8.69971 11.2859V7.78953C8.69971 7.43054 8.99072 7.13953 9.34971 7.13953Z" fill="black"/>
</svg>

<svg xmlns="http://www.w3.org/2000/svg" width="16" height="16" fill="none" viewBox="0 0 16 16"><path fill="#000" fill-rule="evenodd" d="M4.6306 3.2914c0-1.2426 1.0074-2.25 2.25-2.25h2.2688c1.2426 0 2.2499 1.0074 2.2499 2.25v.5625h2.0763a.65.65 0 1 1 0 1.3h-.7281v7.8126c0 1.1322-.9179 2.05-2.05 2.05H5.3327c-1.1322 0-2.05-.9178-2.05-2.05V5.1539h-.7284a.65.65 0 1 1 0-1.3h2.0763zm2.25-.95a.95.95 0 0 0-.95.95v.5625h4.1687v-.5625a.95.95 0 0 0-.95-.95zm.3838 5.448a.65.65 0 0 0-1.3 0v3.4964a.65.65 0 1 0 1.3 0zm2.0853-.65a.65.65 0 0 1 .65.65v3.4964a.65.65 0 1 1-1.3 0V7.7895a.65.65 0 0 1 .65-.65"/></svg>
